icons/breezeDark/actions/22/view-form-action.svg

<svg viewBox="0 0 22 22" xmlns="http://www.w3.org/2000/svg"><path d="m3 3v16h1 3 1 5 1v-1h-1-5-1-3v-11h14v5h1v-9h-1-14zm11.625 1 1.375.8125 1.375-.8125.625.8125-1.6875 1-.3125.1875-.3125-.1875-1.6875-1zm-7.625 4c-1.104569 0-2 .8954-2 2s.895431 2 2 2 2-.8954 2-2-.895431-2-2-2zm0 1c.552285 0 1 .4477 1 1s-.447715 1-1 1-1-.4477-1-1 .447715-1 1-1zm4 1v1h6v-1zm6 2-3 4.083984 2-.083984v3l3-4h-2zm-12 1v4h3 1v-1-3zm1 1h2v2h-2zm5 1v1h2v-1z" fill="#c0c0c0"/></svg>

<svg xmlns="http://www.w3.org/2000/svg" viewBox="0 0 22 22">
  <defs id="defs3051">
    <style type="text/css" id="current-color-scheme">
      .ColorScheme-Text {
        color:#c0c0c0;
      }
      </style>
  </defs>
 <path 
    style="fill:currentColor;fill-opacity:1;stroke:none" 
    d="M 3 3 L 3 19 L 4 19 L 7 19 L 8 19 L 13 19 L 14 19 L 14 18 L 13 18 L 8 18 L 7 18 L 4 18 L 4 7 L 18 7 L 18 12 L 19 12 L 19 3 L 18 3 L 4 3 L 3 3 z M 14.625 4 L 16 4.8125 L 17.375 4 L 18 4.8125 L 16.3125 5.8125 L 16 6 L 15.6875 5.8125 L 14 4.8125 L 14.625 4 z M 7 8 C 5.895431 8 5 8.8954 5 10 C 5 11.1046 5.895431 12 7 12 C 8.104569 12 9 11.1046 9 10 C 9 8.8954 8.104569 8 7 8 z M 7 9 C 7.552285 9 8 9.4477 8 10 C 8 10.5523 7.552285 11 7 11 C 6.447715 11 6 10.5523 6 10 C 6 9.4477 6.447715 9 7 9 z M 11 10 L 11 11 L 17 11 L 17 10 L 11 10 z M 17 12 L 14 16.083984 L 16 16 L 16 19 L 19 15 L 17 15 L 17 12 z M 5 13 L 5 17 L 8 17 L 9 17 L 9 16 L 9 13 L 5 13 z M 6 14 L 8 14 L 8 16 L 6 16 L 6 14 z M 11 15 L 11 16 L 13 16 L 13 15 L 11 15 z "
	class="ColorScheme-Text"
    />  
</svg>
